resources/svg/exclamation-small-o.svg

<svg xmlns="http://www.w3.org/2000/svg" viewBox="0 0 15 15" fill="none"><path d="M8 10.5V10H7V10.5H8ZM7 10.51V11.01H8V10.51H7ZM7 4V8H8V4H7ZM7 10.5V10.51H8V10.5H7Z" fill="black"/></svg>

<svg xmlns="http://www.w3.org/2000/svg" viewBox="0 0 15 15" fill="none"><path d="M8 10.5V10H7v.5h1zm-1 .01v.5h1v-.5H7zM7 4v4h1V4H7zm0 6.5v.01h1v-.01H7z" fill="currentColor"/></svg>
